X:1                          % number
T:En dro
C:Trad.
O:France
M:C|
L:1/4
Q:                           % tempo
K:G                           % key
V:1                          % voice 1
A/ |: cB A>B | c/B/c/d/ e2 | e/d/e/f/ g>e |1 fd e>A :|2 fde2 |:
e/d/e/f/ g>f | edcB | AeAe | A/B/c/d/ e2 | Ac/B/ A/c/B/c/ | A4 :|
